icons/female_and_male_fill.svg

<svg width="48" height="48" viewBox="0 0 48 48" fill="none" xmlns="http://www.w3.org/2000/svg">
<path fill-rule="evenodd" clip-rule="evenodd" d="M33.5 13C35.433 13 37 11.433 37 9.5C37 7.567 35.433 6 33.5 6C31.567 6 30 7.567 30 9.5C30 11.433 31.567 13 33.5 13ZM38.6486 20C38.6984 20.3524 38.7424 20.7287 38.7806 21.1216C38.9992 23.3666 39 25.8009 39 26.4998C39 27.3282 39.6716 27.9998 40.5 27.9998C41.3284 27.9998 42 27.3282 42 26.4998V26.493C42 25.7857 42 23.2288 41.7665 20.8308C41.6507 19.6418 41.4698 18.4015 41.1696 17.4252C41.0223 16.9462 40.8147 16.4227 40.499 15.9892C40.1824 15.5547 39.59 15 38.6886 15H28.3114C27.41 15 26.8176 15.5547 26.501 15.9892C26.1853 16.4227 25.9777 16.9462 25.8304 17.4252C25.5302 18.4015 25.3492 19.6418 25.2335 20.8308C25 23.2288 25 25.7857 25 26.493V26.4998C25 27.3282 25.6716 27.9998 26.5 27.9998C27.3284 27.9998 28 27.3282 28 26.4998C28 25.8009 28.0008 23.3666 28.2194 21.1216C28.2576 20.7287 28.3016 20.3524 28.3514 20H29L29 40.4999C29 41.305 29.6356 41.9666 30.4401 41.9987C31.2446 42.0308 31.931 41.4221 31.9952 40.6195L32.8448 30H34.1552L35.0048 40.6196C35.069 41.4222 35.7554 42.0309 36.5599 41.9988C37.3644 41.9667 38 41.3051 38 40.5V20H38.6486Z" fill="black"/>
<path fill-rule="evenodd" clip-rule="evenodd" d="M18 9.5C18 11.433 16.433 13 14.5 13C12.567 13 11 11.433 11 9.5C11 7.567 12.567 6 14.5 6C16.433 6 18 7.567 18 9.5ZM18.8665 15.046C18.7467 15.0158 18.6236 15.0005 18.5 15.0005H13.0002C12.9869 15.0005 12.9733 15.0007 12.9601 15.001L12.4377 15.0009C11.6259 15.0008 10.7493 15.0008 10.4979 15.0012C10.375 15.0014 10.2526 15.0166 10.1335 15.0467C9.01975 15.3273 8.27154 16.0056 7.80063 16.9324C7.38842 17.7436 7.18744 18.7524 7.0204 19.7546L6.0204 25.7546C5.88421 26.5718 6.43624 27.3446 7.25339 27.4808C8.07055 27.617 8.84339 27.065 8.97958 26.2478L9.97958 20.2478C10.0724 19.6907 10.1579 19.2663 10.2448 18.9388L10.5 22.0002C10.4999 23.8697 8.80604 32.4085 8.20691 35.3703C8.09424 35.9273 8.46802 36.4634 9.03011 36.5471C13.1517 37.1615 15.8484 37.1418 19.9689 36.5426C20.5314 36.4608 20.9081 35.9272 20.7979 35.3696C20.2031 32.3609 18.5 23.6064 18.5 22L18.7552 18.9382C18.8421 19.2657 18.9276 19.6901 19.0204 20.2471L20.0204 26.2471C20.1566 27.0642 20.9294 27.6163 21.7466 27.4801C22.5638 27.3439 23.1158 26.5711 22.9796 25.7539L21.9796 19.7539C21.8126 18.7517 21.6116 17.7429 21.1994 16.9317C20.7285 16.0049 19.9802 15.3266 18.8665 15.046ZM11.0077 41.1241L10.6311 38.1115C11.6905 38.2418 12.6981 38.3256 13.6899 38.3637L12.9701 41.2426C12.8534 41.7097 12.4203 42.0273 11.9397 41.9982C11.4591 41.9692 11.0674 41.6018 11.0077 41.1241ZM16.0299 41.2421L15.3156 38.3853C16.3129 38.3733 17.3141 38.3149 18.3564 38.2111L17.9923 41.1236C17.9326 41.6014 17.5409 41.9687 17.0603 41.9977C16.5797 42.0268 16.1466 41.7092 16.0299 41.2421Z" fill="black"/>
</svg>

<svg
  xmlns="http://www.w3.org/2000/svg"
  width="24"
  height="24"
  viewBox="0 0 24 24"
  fill="none"
  stroke="currentColor"
  stroke-width="2"
  stroke-linecap="round"
  stroke-linejoin="round"
>
  <path
    fill-rule="evenodd"
    d="M33.5 13a3.5 3.5 0 1 0 0-7 3.5 3.5 0 0 0 0 7m5.149 7c.05.352.093.729.132 1.122.218 2.245.219 4.679.219 5.378a1.5 1.5 0 0 0 3 0v-.007c0-.707 0-3.264-.233-5.662-.116-1.19-.297-2.43-.597-3.406-.148-.479-.355-1.002-.671-1.436S39.59 15 38.689 15H28.31c-.901 0-1.493.555-1.81.99-.316.433-.523.956-.67 1.435-.3.976-.482 2.217-.598 3.406C25 23.229 25 25.786 25 26.493v.007a1.5 1.5 0 0 0 3 0c0-.7 0-3.133.22-5.378.038-.393.082-.77.131-1.122H29v20.5a1.5 1.5 0 0 0 2.995.12l.85-10.62h1.31l.85 10.62A1.5 1.5 0 0 0 38 40.5V20z"
    clip-rule="evenodd"
  />
  <path
    fill-rule="evenodd"
    d="M18 9.5a3.5 3.5 0 1 1-7 0 3.5 3.5 0 0 1 7 0m.866 5.546a1.5 1.5 0 0 0-.366-.045h-8.002q-.185 0-.364.046c-1.114.28-1.862.959-2.333 1.885-.413.812-.614 1.82-.78 2.823l-1 6a1.5 1.5 0 1 0 2.959.493l1-6c.092-.557.178-.982.265-1.31L10.5 22c0 1.87-1.694 10.408-2.293 13.37a.99.99 0 0 0 .823 1.177c4.122.614 6.818.595 10.939-.004a.99.99 0 0 0 .829-1.173C20.203 32.36 18.5 23.606 18.5 22l.255-3.062c.087.328.173.752.265 1.31l1 6a1.5 1.5 0 0 0 2.96-.494l-1-6c-.167-1.002-.368-2.011-.78-2.822-.471-.927-1.22-1.605-2.334-1.886m-7.858 26.078-.377-3.013c1.06.13 2.067.215 3.059.253l-.72 2.879a1 1 0 0 1-1.962-.119m5.022.118-.714-2.857c.997-.012 1.998-.07 3.04-.174l-.364 2.913a1 1 0 0 1-1.962.118"
    clip-rule="evenodd"
  />
</svg>
